packages/ui/public/icons/post-share-icon.svg

<svg width="24" height="24" viewBox="0 0 24 24" fill="none" xmlns="http://www.w3.org/2000/svg">
  <path d="M20.7914 12.6072C21.0355 12.3979 21.1575 12.2933 21.2023 12.1688C21.2415 12.0596 21.2415 11.94 21.2023 11.8308C21.1575 11.7063 21.0355 11.6016 20.7914 11.3924L12.3206 4.13178C11.9004 3.77158 11.6903 3.59148 11.5124 3.58707C11.3578 3.58324 11.2101 3.65116 11.1124 3.77104C11 3.90897 11 4.18571 11 4.73918V9.03444C8.86532 9.40789 6.91159 10.4895 5.45971 12.1137C3.87682 13.8843 3.00123 16.1757 3 18.5508V19.1627C4.04934 17.8987 5.35951 16.8763 6.84076 16.1657C8.1467 15.5392 9.55842 15.1681 11 15.0703V19.2604C11 19.8139 11 20.0906 11.1124 20.2286C11.2101 20.3484 11.3578 20.4164 11.5124 20.4125C11.6903 20.4081 11.9004 20.228 12.3206 19.8678L20.7914 12.6072Z" stroke="#A09FA6" stroke-width="2" stroke-linecap="round" stroke-linejoin="round" />
</svg>

<svg width="24" height="24" fill="none" xmlns="http://www.w3.org/2000/svg"><path d="M20.791 12.607c.244-.21.366-.314.411-.438a.5.5 0 0 0 0-.338c-.045-.125-.167-.23-.41-.439l-8.471-7.26c-.42-.36-.63-.54-.809-.545a.5.5 0 0 0-.4.184C11 3.909 11 4.186 11 4.739v4.295a9.666 9.666 0 0 0-8 9.517v.612a11.401 11.401 0 0 1 8-4.093v4.19c0 .554 0 .83.112.969a.5.5 0 0 0 .4.184c.178-.005.388-.185.809-.545l8.47-7.26Z" stroke="#A09FA6" stroke-width="2" stroke-linecap="round" stroke-linejoin="round"/></svg>
